public/icons/calendar_icon.svg

<svg width="330" height="330" viewBox="0 0 330 330" fill="none" xmlns="http://www.w3.org/2000/svg">
<path d="M149.034 71.7853C151.368 67.9672 149.607 62.1665 151.898 57.8794C153.739 54.4224 157.182 51.6409 160.944 50.5825C164.772 49.5169 168.86 50.0534 172.282 52.0679C175.812 54.1389 178.364 57.5315 179.379 61.4931C180.097 64.3601 180.292 69.2569 178.726 71.8027L220.38 71.7839C222.663 67.8484 221.068 61.894 223.533 57.3662C225.345 54.0447 228.274 51.5119 231.935 50.4963C235.74 49.4423 239.923 50.1092 243.316 52.0983C246.94 54.2556 249.55 57.7656 250.579 61.8534C251.253 64.6667 251.485 69.2873 249.949 71.7998C255.733 71.7338 262.366 71.0764 268.042 72.1601C272.479 73.0075 276.386 75.3258 278.923 79.1243C280.88 82.0681 281.75 85.2657 282.033 88.7547C282.881 99.1056 282.229 109.884 282.308 120.29C282.497 145.052 282.555 169.817 282.482 194.58L282.569 236.434C282.606 245.076 283.57 254.847 281.794 263.313C281.003 267.098 279.554 270.882 276.212 273.082C276.023 273.688 276.118 273.63 275.762 274.047C272.276 278.201 266.52 278.491 261.54 278.672C246.085 279.233 230.499 278.824 215.037 278.803L135.848 278.782L91.339 278.75C82.5531 278.777 73.1293 279.504 64.4522 278.345C60.7044 277.845 57.4641 276.176 54.7312 273.578C50.0265 269.103 48.5042 262.988 48.3955 256.672C47.7141 218.317 48.381 179.8 48.4245 141.43C48.4463 130.364 48.381 119.296 48.2433 108.231C48.1781 101.862 47.6198 95.0251 48.4535 88.7126C49.0551 84.2109 50.708 79.76 53.9556 76.4958C60.0883 70.3435 70.3312 71.7128 78.2979 71.7861C80.3784 68.4421 79.1098 61.3648 81.27 57.1553C83.075 53.6366 87.236 51.5162 90.788 50.2723C94.3618 49.8308 97.5949 50.0918 100.799 51.8678C104.438 53.8896 107.272 57.2104 108.389 61.264C109.179 64.1296 109.346 69.1662 107.91 71.794L149.034 71.7853Z" fill="black"/>
<path d="M57.4424 128.034C63.3069 126.869 70.8387 127.652 76.8481 127.651L117.711 127.681L271.761 127.71C272.312 128.614 272.5 129.434 272.566 130.482C273.109 138.94 272.638 147.742 272.638 156.225L272.645 208.343L272.638 242.542C272.638 248.325 273.146 254.726 272.384 260.436C272.102 262.594 271.464 263.826 269.731 265.13C269.695 265.255 269.673 265.387 269.615 265.505C269.166 266.455 267.999 267.317 267.006 267.63C261.591 269.354 164.359 268.222 150.223 268.211C137.711 268.202 66.4748 269.448 62.3066 266.921C59.6244 265.29 58.537 260.041 58.1963 257.145C56.9712 246.708 57.9571 233.361 57.9788 222.519L58.0658 150.944C58.0658 144.936 59.0445 133.756 57.5584 128.395C57.5221 128.274 57.4786 128.155 57.4424 128.034Z" fill="#FEFEFE"/>
<path d="M94.1226 206.89C98.8345 206.299 116.827 205.607 120.625 207.465C121.981 208.952 122.554 210.531 122.967 212.462C123.931 217.035 124.344 235.069 121.771 238.866C120.77 240.342 119.61 240.625 117.936 240.963C117.211 241.255 116.508 241.27 115.739 241.324C111.861 241.598 95.4276 242.128 92.9339 239.684C88.9034 235.738 90.3967 220.762 90.7084 215.354C90.9186 211.677 91.2593 209.46 94.1226 206.89Z" fill="black"/>
<path d="M94.2529 152.509C99.088 151.858 116.711 151.243 120.726 153.139C122.002 154.546 122.539 155.983 122.93 157.801C123.909 162.345 124.365 180.689 121.763 184.471C120.755 185.938 119.61 186.233 117.936 186.579C114.855 187.796 105.583 186.909 101.908 186.983C99.1606 187.039 94.9488 187.351 92.8973 185.137C89.2075 181.153 90.3022 164.675 90.8459 159.257C91.1576 156.211 91.81 154.478 94.2529 152.509Z" fill="black"/>
<path d="M211.042 152.509C215.385 151.953 233.275 151.292 236.755 152.831C238.103 153.427 238.835 154.908 239.256 156.255C240.749 160.981 241.068 180.045 238.777 184.095C237.944 185.562 236.922 185.988 235.363 186.458C232.935 187.676 219.531 187.161 216.124 187.059C214.072 186.998 211.006 186.611 209.636 184.929C206.367 180.933 207.788 165.842 207.983 160.695C208.121 157.115 208.309 155.047 211.042 152.509Z" fill="black"/>
<path d="M211.028 206.891C216.704 206.162 231.695 205.692 236.929 207.238C237.814 207.899 238.307 208.42 238.771 209.444C240.779 213.901 241.047 233.491 239.024 237.964C238.183 239.817 237.118 240.162 235.356 240.849C232.986 241.893 219.517 241.539 216.132 241.446C214.102 241.39 210.999 240.982 209.644 239.336C206.382 235.397 207.817 221.52 207.94 216.433C208.042 212.474 207.984 209.792 211.028 206.891Z" fill="black"/>
<path d="M152.499 152.509C157.631 151.816 172.941 151.245 177.516 152.596C178.915 153.01 179.603 153.938 180.198 155.22C182.112 159.37 182.271 179.661 180.343 183.68C179.502 185.43 178.429 185.939 176.638 186.471C175.696 186.852 174.841 186.903 173.84 186.96C169.629 187.201 154.188 187.86 151.636 185.298C147.983 181.638 149.172 171.003 149.222 166.186C149.273 161.174 148.672 156.269 152.499 152.509Z" fill="black"/>
<path d="M152.434 206.89C156.457 206.344 175.116 205.639 178.313 207.319C179.538 207.963 180.205 209.501 180.604 210.762C182.061 215.336 182.293 234.611 180.067 238.491C179.226 239.951 178.204 240.372 176.646 240.842C175.739 241.287 174.877 241.302 173.876 241.356C169.701 241.582 154.137 242.212 151.622 239.687C148.063 236.114 149.186 226.004 149.215 221.311C149.251 216.211 148.534 210.73 152.434 206.89Z" fill="black"/>
<path d="M178.712 82.06L220.705 82.0325C222.692 85.5548 221.336 90.9641 222.771 94.962C223.873 98.0305 226.882 100.832 229.796 102.199C233.406 103.868 237.552 103.996 241.264 102.555C244.809 101.2 248.136 98.1747 249.571 94.6256C250.666 91.9261 251.304 87.1721 250.079 84.5298C250.477 83.4446 250.731 82.9582 251.579 82.1724C256.161 81.7549 264.541 80.9423 268.622 83.1525C270.543 84.1906 271.362 86.4537 271.891 88.4508C273.044 92.8162 273.812 113.941 271.753 117.496L57.0361 117.484C57.0796 117.391 57.1231 117.298 57.1666 117.205C60.0952 111.399 56.8114 97.8202 58.022 90.6676C58.6817 86.743 60.2402 84.6371 63.437 82.3565C68.3156 81.7657 73.4552 82.0615 78.3701 82.0789C80.6753 85.9434 79.1457 91.8325 81.4654 96.2588C83.1255 99.431 86.1194 102.043 89.5554 103.093C93.3032 104.239 97.5004 103.691 100.907 101.773C104.481 99.7318 107.113 96.3632 108.229 92.3965C109.026 89.5281 109.258 84.6929 107.801 82.0825L149.07 82.0637C151.491 85.8455 149.868 91.6491 152.05 95.8942C153.789 99.2737 157.334 102.12 160.995 103.109C164.822 104.141 168.904 103.558 172.296 101.496C175.754 99.4158 178.385 95.8637 179.277 91.913C179.893 89.1692 180.227 84.4899 178.712 82.06Z" fill="#FED515"/>
<path d="M91.1718 60.6036C92.2665 60.439 93.6003 60.1925 94.7094 60.294C96.2099 60.4303 97.0581 61.1632 97.9932 62.2738C99.1386 65.5206 99.5155 87.4751 98.4861 90.5219C97.9207 92.2204 96.7101 92.5212 95.2313 93.2367C95.1516 93.2679 95.0791 93.3063 94.9994 93.3288C93.6583 93.7101 92.6941 93.5977 91.4401 93.0511C90.273 92.0065 89.809 91.0018 89.4756 89.4773C88.4245 84.6393 88.2867 68.5565 89.5336 63.762C89.8235 62.6318 90.5339 61.5713 91.1718 60.6036Z" fill="#FEFEFE"/>
<path d="M233.37 60.605C234.501 60.4325 235.777 60.1723 236.922 60.3049C238.27 60.4622 239.517 61.3053 240.206 62.468C241.366 64.4122 241.3 88.7916 240.452 90.8945C239.894 92.274 238.676 92.706 237.386 93.2359C235.965 93.681 234.928 93.6049 233.587 92.9996C232.196 91.7666 231.753 90.5212 231.456 88.7082C230.572 83.2359 230.586 69.3025 231.63 63.9831C231.884 62.6855 232.602 61.654 233.37 60.605Z" fill="#FEFEFE"/>
<path d="M162.249 60.6043C163.431 60.3767 164.736 60.1962 165.932 60.3368C167.476 60.5187 168.28 61.5416 169.172 62.7015C170.31 67.7642 170.158 85.5353 169.259 90.917C168.382 92.3247 167.672 92.6422 166.149 93.2359C164.729 93.594 163.967 93.6071 162.597 93.0793C160.857 91.6629 160.51 90.1145 160.249 87.9746C159.64 83.0611 159.328 67.7569 160.567 63.3937C160.857 62.3701 161.611 61.4263 162.249 60.6043Z" fill="#FEFEFE"/>
</svg>

<svg xmlns="http://www.w3.org/2000/svg" width="330" height="330" fill="none" viewBox="0 0 330 330"><path fill="#000" d="M149.034 71.785c2.334-3.818.573-9.618 2.864-13.906 1.841-3.457 5.284-6.238 9.046-7.296a14.6 14.6 0 0 1 11.338 1.485 15.34 15.34 0 0 1 7.097 9.425c.718 2.867.913 7.764-.653 10.31l41.654-.02c2.283-3.935.688-9.889 3.153-14.417 1.812-3.321 4.741-5.854 8.402-6.87 3.805-1.054 7.988-.387 11.381 1.602a15.85 15.85 0 0 1 7.263 9.755c.674 2.814.906 7.434-.63 9.947 5.784-.066 12.417-.724 18.093.36 4.437.847 8.344 3.166 10.881 6.964 1.957 2.944 2.827 6.142 3.11 9.63.848 10.352.196 21.13.275 31.536q.284 37.144.174 74.29l.087 41.854c.037 8.642 1.001 18.413-.775 26.879-.791 3.785-2.24 7.569-5.582 9.769-.189.606-.094.548-.45.965-3.486 4.154-9.242 4.444-14.222 4.625-15.455.561-31.041.152-46.503.131l-79.189-.021-44.509-.032c-8.786.027-18.21.754-26.887-.405-3.748-.5-6.988-2.169-9.72-4.767-4.706-4.475-6.228-10.59-6.337-16.906-.68-38.355-.014-76.872.03-115.242a2311 2311 0 0 0-.182-33.199c-.065-6.369-.623-13.206.21-19.518.602-4.502 2.255-8.953 5.503-12.217 6.132-6.152 16.375-4.783 24.342-4.71 2.08-3.344.812-10.421 2.972-14.63 1.805-3.52 5.966-5.64 9.518-6.884 3.574-.441 6.807-.18 10.011 1.596 3.639 2.022 6.473 5.342 7.59 9.396.79 2.866.957 7.902-.479 10.53z"/><path fill="#fefefe" d="M57.442 128.034c5.865-1.165 13.397-.382 19.406-.383l40.863.03 154.05.029c.551.904.739 1.724.805 2.772.543 8.458.072 17.26.072 25.743l.007 52.118-.007 34.199c0 5.783.508 12.184-.254 17.894-.282 2.158-.92 3.39-2.653 4.694-.036.125-.058.257-.116.375-.449.95-1.616 1.812-2.609 2.125-5.415 1.724-102.647.592-116.783.581-12.512-.009-83.748 1.237-87.916-1.29-2.683-1.631-3.77-6.88-4.11-9.776-1.226-10.437-.24-23.784-.218-34.626l.087-71.575c0-6.008.978-17.188-.508-22.549-.036-.121-.08-.24-.116-.361"/><path fill="#000" d="M94.123 206.89c4.712-.591 22.704-1.283 26.502.575 1.356 1.487 1.929 3.066 2.342 4.997.964 4.573 1.377 22.607-1.196 26.404-1.001 1.476-2.161 1.759-3.835 2.097-.725.292-1.428.307-2.197.361-3.878.274-20.311.804-22.805-1.64-4.03-3.946-2.537-18.922-2.226-24.33.21-3.677.551-5.894 3.415-8.464m.13-54.381c4.835-.651 22.458-1.266 26.473.63 1.276 1.407 1.813 2.844 2.204 4.662.979 4.544 1.435 22.888-1.167 26.67-1.008 1.467-2.153 1.762-3.827 2.108-3.081 1.217-12.353.33-16.028.404-2.747.056-6.96.368-9.01-1.846-3.69-3.984-2.596-20.462-2.052-25.88.312-3.046.964-4.779 3.407-6.748m116.789 0c4.343-.556 22.233-1.217 25.713.322 1.348.596 2.08 2.077 2.501 3.424 1.493 4.726 1.812 23.79-.479 27.84-.833 1.467-1.855 1.893-3.414 2.363-2.428 1.218-15.832.703-19.239.601-2.052-.061-5.118-.448-6.488-2.13-3.269-3.996-1.848-19.087-1.653-24.234.138-3.58.326-5.648 3.059-8.186m-.014 54.382c5.676-.729 20.667-1.199 25.901.347.885.661 1.378 1.182 1.842 2.206 2.008 4.457 2.276 24.047.253 28.52-.841 1.853-1.906 2.198-3.668 2.885-2.37 1.044-15.839.69-19.224.597-2.03-.056-5.133-.464-6.488-2.11-3.262-3.939-1.827-17.816-1.704-22.903.102-3.959.044-6.641 3.088-9.542m-58.529-54.382c5.132-.693 20.442-1.264 25.017.087 1.399.414 2.087 1.342 2.682 2.624 1.914 4.15 2.073 24.441.145 28.46-.841 1.75-1.914 2.259-3.705 2.791-.942.381-1.797.432-2.798.489-4.211.241-19.652.9-22.204-1.662-3.653-3.66-2.464-14.295-2.414-19.112.051-5.012-.55-9.917 3.277-13.677m-.065 54.381c4.023-.546 22.682-1.251 25.879.429 1.225.644 1.892 2.182 2.291 3.443 1.457 4.574 1.689 23.849-.537 27.729-.841 1.46-1.863 1.881-3.421 2.351-.907.445-1.769.46-2.77.514-4.175.226-19.739.856-22.254-1.669-3.559-3.573-2.436-13.683-2.407-18.376.036-5.1-.681-10.581 3.219-14.421"/><path fill="#fed515" d="m178.712 82.06 41.993-.028c1.987 3.523.631 8.932 2.066 12.93 1.102 3.069 4.111 5.87 7.025 7.237a14.7 14.7 0 0 0 11.468.356c3.545-1.355 6.872-4.38 8.307-7.93 1.095-2.699 1.733-7.453.508-10.095.398-1.085.652-1.572 1.5-2.358 4.582-.417 12.962-1.23 17.043.98 1.921 1.039 2.74 3.302 3.269 5.299 1.153 4.365 1.921 25.49-.138 29.045l-214.717-.012.13-.279c2.93-5.806-.355-19.385.856-26.537.66-3.925 2.218-6.03 5.415-8.312 4.879-.59 10.018-.294 14.933-.277 2.305 3.864.776 9.754 3.095 14.18 1.66 3.172 4.654 5.784 8.09 6.834 3.748 1.146 7.945.598 11.352-1.32a15.7 15.7 0 0 0 7.322-9.376c.797-2.869 1.029-7.704-.428-10.315l41.269-.018c2.421 3.782.798 9.585 2.98 13.83 1.739 3.38 5.284 6.226 8.945 7.215a14.5 14.5 0 0 0 11.301-1.613c3.458-2.08 6.089-5.632 6.981-9.583.616-2.744.95-7.423-.565-9.853"/><path fill="#fefefe" d="M91.172 60.604c1.094-.165 2.428-.411 3.537-.31 1.5.136 2.35.87 3.284 1.98 1.146 3.247 1.523 25.201.493 28.248-.565 1.698-1.776 2-3.255 2.715-.08.03-.152.07-.232.092-1.34.381-2.305.269-3.559-.278-1.167-1.044-1.631-2.05-1.964-3.574-1.052-4.838-1.19-20.92.058-25.715.29-1.13 1-2.19 1.638-3.158m142.198.001c1.131-.172 2.407-.433 3.552-.3 1.348.157 2.595 1 3.284 2.163 1.16 1.944 1.094 26.324.246 28.426-.558 1.38-1.776 1.812-3.066 2.342-1.421.445-2.458.369-3.799-.236-1.391-1.233-1.834-2.479-2.131-4.292-.884-5.472-.87-19.406.174-24.725.254-1.297.972-2.329 1.74-3.378m-71.121-.001c1.182-.227 2.487-.408 3.683-.267 1.544.182 2.348 1.205 3.24 2.364 1.138 5.063.986 22.834.087 28.216-.877 1.408-1.587 1.725-3.11 2.319-1.42.358-2.182.371-3.552-.157-1.74-1.416-2.087-2.964-2.348-5.104-.609-4.914-.921-20.218.318-24.581.29-1.024 1.044-1.968 1.682-2.79"/></svg>
